!!!COM: des Prez, Josquin
!!!CDT: ~1450-1521/08/27
!!!OTL@@FRA: Plusieurs regretz
!!!AGN: Chanson
!!!SCT: NJE 29.21
!!!SCA: New Josquin Edition 29.21
!!!voices: 5
**kern	**text	**kern	**text	**kern	**text	**kern	**text	**kern	**text
*staff5	*	*staff4	*	*staff3	*	*staff2	*	*staff1	*
*Ivox	*	*Ivox	*	*Ivox	*	*Ivox	*	*Ivox	*
*I"Bassus	*	*I"Tenor	*	*I"Altus	*	*I"Quinta pars	*	*I"Superius	*
*I'B	*	*I'T	*	*I'Ct	*	*I'Q	*	*I'S	*
*clefF4	*	*clefGv2	*	*clefGv2	*	*clefGv2	*	*clefG2	*
*k[]	*	*k[]	*	*k[]	*	*k[]	*	*k[]	*
*M2/1	*	*M2/1	*	*M2/1	*	*M2/1	*	*M2/1	*
*met(C|)	*	*met(C|)	*	*met(C|)	*	*met(C|)	*	*met(C|)	*
=1-	=1-	=1-	=1-	=1-	=1-	=1-	=1-	=1-	=1-
!	!	!LO:TX:Z=6:t=Canon at the upper 5th (T-->Q, two breves)	!	!	!	!	!	!	!
0r	.	0r	.	1r	.	0r	.	1d	Plu-
.	.	.	.	1d	Plu-	.	.	2.d/	-sieurs
.	.	.	.	.	.	.	.	4e/	.
=2	=2	=2	=2	=2	=2	=2	=2	=2	=2
0r	.	0r	.	2.d\	-sieurs	0r	.	4f/	.
.	.	.	.	.	.	.	.	4g/	.
.	.	.	.	.	.	.	.	2.a/	.
.	.	.	.	4c\	.	.	.	.	.
.	.	.	.	1B-i	re-	.	.	.	.
.	.	.	.	.	.	.	.	4g/	.
.	.	.	.	.	.	.	.	4g/	re-
.	.	.	.	.	.	.	.	4f/	.
=3	=3	=3	=3	=3	=3	=3	=3	=3	=3
1r	.	1D	Plu-	1A	-gretz,	0r	.	1a	-great,
1D	Plu-	2.D	-sieurs	2.F/	plu-	.	.	2r	.
.	.	.	.	.	.	.	.	2f/	plu-
.	.	4E	.	4G/	.	.	.	.	.
=4	=4	=4	=4	=4	=4	=4	=4	=4	=4
2.D\	-sieurs	4F	.	1A	-sieurs	0r	.	2.f/	-sieurs
.	.	4G	.	.	.	.	.	.	.
.	.	2.A	.	.	.	.	.	.	.
4C/	.	.	.	.	.	.	.	4e/	.
1BB-i	re-	.	.	1D	re-	.	.	1d	re-
.	.	4G	.	.	.	.	.	.	.
.	.	4G	re-	.	.	.	.	.	.
.	.	4F	.	.	.	.	.	.	.
=5	=5	=5	=5	=5	=5	=5	=5	=5	=5
1AA	-gretz,	0A	-gretz	1E	-gretz,	1A	Plu-	1c	-gretz,
2r	.	.	.	2.c\	plu-	2.A/	-sieurs	2r	.
2A\	plu-	.	.	.	.	.	.	2cc\	plu-
.	.	.	.	4d\	.	4B\	.	.	.
=6	=6	=6	=6	=6	=6	=6	=6	=6	=6
2.A\	-sieurs	0r	.	1e	-sieurs	4c\	.	2.cc\	-sieurs
.	.	.	.	.	.	4d\	.	.	.
.	.	.	.	.	.	2.e\	.	.	.
4G\	.	.	.	.	.	.	.	4b\	.
1F	re-	.	.	1A	re-	.	.	1a	re-
.	.	.	.	.	.	4d\	.	.	.
.	.	.	.	.	.	4d\	re-	.	.
.	.	.	.	.	.	4c\	.	.	.
=7	=7	=7	=7	=7	=7	=7	=7	=7	=7
0E	-gretz	1r	.	2B\	-gretz,	0e	-gretz	0g	-gretz
.	.	.	.	2E/	plu-	.	.	.	.
.	.	1E	qui	2.G/	-sieurs	.	.	.	.
.	.	.	.	4A/	.	.	.	.	.
=8	=8	=8	=8	=8	=8	=8	=8	=8	=8
1r	.	1G	sur	2B\	.	0r	.	1r	.
.	.	.	.	4E/	re-	.	.	.	.
.	.	.	.	4F/	.	.	.	.	.
1E	qui	2G	la	4G/	.	.	.	1g	qui
.	.	.	.	4A/	.	.	.	.	.
.	.	[2G	ter-	2B\	.	.	.	.	.
=9	=9	=9	=9	=9	=9	=9	=9	=9	=9
1G	sur	4G]	.	2E/	-gretz	1r	.	1g	sur
.	.	4F	.	.	.	.	.	.	.
.	.	4E	.	2.e\	qui	.	.	.	.
.	.	4D	.	.	.	.	.	.	.
1G	la	1E	-re	.	.	1B	qui	1g	la
.	.	.	.	4f\	.	.	.	.	.
.	.	.	.	4g\	.	.	.	.	.
.	.	.	.	4e\	.	.	.	.	.
=10	=10	=10	=10	=10	=10	=10	=10	=10	=10
1.F	ter-	0D	sont,	2f\	sur	1d	sur	2.a/	ter-
.	.	.	.	2d\	.	.	.	.	.
.	.	.	.	.	.	.	.	4g/	.
.	.	.	.	1f	la	2d\	la	2a/	.
4E\	.	.	.	.	.	[2d\	ter-	[2b\	.
4D\	.	.	.	.	.	.	.	.	.
=11	=11	=11	=11	=11	=11	=11	=11	=11	=11
2.E\	.	0r	.	2.e\	ter-	4d\]	.	4b\]	.
.	.	.	.	.	.	4c\	.	4a/	.
.	.	.	.	.	.	4B\	.	2.a/	.
4F\	.	.	.	4d\	.	4A/	.	.	.
1E	-re	.	.	1e	-re	1B	-re	.	.
.	.	.	.	.	.	.	.	4g#i/	.
.	.	.	.	.	.	.	.	4g#i/	-re
.	.	.	.	.	.	.	.	4f#i/	.
=12	=12	=12	=12	=12	=12	=12	=12	=12	=12
0AA	sont,	0r	.	0c	sont,	0A	sont,	1a	sont,
.	.	.	.	.	.	.	.	1r	.
=13	=13	=13	=13	=13	=13	=13	=13	=13	=13
0r	.	0r	.	1r	.	0r	.	1d	Et
.	.	.	.	1d	Et	.	.	2.d/	les
.	.	.	.	.	.	.	.	4e/	.
=14	=14	=14	=14	=14	=14	=14	=14	=14	=14
0r	.	0r	.	2.d\	les	0r	.	4f/	.
.	.	.	.	.	.	.	.	4g/	.
.	.	.	.	.	.	.	.	2.a	.
.	.	.	.	4c\	.	.	.	.	.
.	.	.	.	1B-i	dou-	.	.	.	.
.	.	.	.	.	.	.	.	4g/	.
.	.	.	.	.	.	.	.	4g/	dou-
.	.	.	.	.	.	.	.	4f/	.
=15	=15	=15	=15	=15	=15	=15	=15	=15	=15
1r	.	1D	Et	1A	-leurs,	0r	.	1a	-leurs,
1D	Et	2.D	les	2.F/	et	.	.	2r	.
.	.	.	.	.	.	.	.	2f/	et
.	.	4E	.	4G/	.	.	.	.	.
=16	=16	=16	=16	=16	=16	=16	=16	=16	=16
2.D\	les	4F	.	1A	les	0r	.	2.f/	les
.	.	4G	.	.	.	.	.	.	.
.	.	2.A	.	.	.	.	.	.	.
4C/	.	.	.	.	.	.	.	4e/	.
1BB-i	dou-	.	.	1D	dou-	.	.	1d	dou-
.	.	4G	.	.	.	.	.	.	.
.	.	4G	dou-	.	.	.	.	.	.
.	.	4F	.	.	.	.	.	.	.
=17	=17	=17	=17	=17	=17	=17	=17	=17	=17
1AA	-leurs,	0A	-leurs	1E	-leurs,	1A	Et	1c	-leurs,
2r	.	.	.	2.c\	et	2.A/	les	2r	.
2A\	et	.	.	.	.	.	.	2cc\	et
.	.	.	.	4d\	.	4B\	.	.	.
=18	=18	=18	=18	=18	=18	=18	=18	=18	=18
2.A\	les	0r	.	1e	les	4c\	.	2.cc\	les
.	.	.	.	.	.	4d\	.	.	.
.	.	.	.	.	.	2.e\	.	.	.
4G\	.	.	.	.	.	.	.	4b\	.
1F	dou-	.	.	1A	dou-	.	.	1a	dou-
.	.	.	.	.	.	4d\	.	.	.
.	.	.	.	.	.	4d\	dou-	.	.
.	.	.	.	.	.	4c\	.	.	.
=19	=19	=19	=19	=19	=19	=19	=19	=19	=19
0E	-leurs	1r	.	2B\	-leurs,	0e	-leurs	0g	-leurs
.	.	.	.	2E/	et	.	.	.	.
.	.	1E	qu'hom-	2.G/	les	.	.	.	.
.	.	.	.	4A/	.	.	.	.	.
=20	=20	=20	=20	=20	=20	=20	=20	=20	=20
1r	.	1G	-mes	2B\	.	0r	.	1r	.
.	.	.	.	4E/	dou-	.	.	.	.
.	.	.	.	4F/	.	.	.	.	.
1E	qu'hom-	2G	et	4G/	.	.	.	1g	qu'hom-
.	.	.	.	4A/	.	.	.	.	.
.	.	[2G	fem-	2B\	.	.	.	.	.
=21	=21	=21	=21	=21	=21	=21	=21	=21	=21
1G	-mes	4G]	.	2E/	-leurs	1r	.	1g	-mes
.	.	4F	.	.	.	.	.	.	.
.	.	4E	.	2.e\	qu'hom-	.	.	.	.
.	.	4D	.	.	.	.	.	.	.
1G	et	1E	-mes	.	.	1B	qu'hom-	1g	et
.	.	.	.	4f\	.	.	.	.	.
.	.	.	.	4g\	.	.	.	.	.
.	.	.	.	4e\	.	.	.	.	.
=22	=22	=22	=22	=22	=22	=22	=22	=22	=22
1.F	fem-	0D	ont,	2f\	-mes	1d	-mes	2.a/	fem-
.	.	.	.	2d\	.	.	.	.	.
.	.	.	.	.	.	.	.	4g/	.
.	.	.	.	1f	et	2d\	et	2a/	.
4E\	.	.	.	.	.	[2d\	fem-	[2b\	.
4D\	.	.	.	.	.	.	.	.	.
=23	=23	=23	=23	=23	=23	=23	=23	=23	=23
2.E\	.	0r	.	2.e\	fem-	4d\]	.	4b\]	.
.	.	.	.	.	.	4c\	.	4a/	.
.	.	.	.	.	.	4B\	.	2.a/	.
4F\	.	.	.	4d\	.	4A/	.	.	.
1E	-mes	.	.	1e	-mes	1B	-mes	.	.
.	.	.	.	.	.	.	.	4g#i/	.
.	.	.	.	.	.	.	.	4g#i/	-mes
.	.	.	.	.	.	.	.	4f#i/	.
=24	=24	=24	=24	=24	=24	=24	=24	=24	=24
0AA	ont,	1r	.	2c\	ont,	0A	ont,	0a	ont,
.	.	.	.	2e\	N'est	.	.	.	.
.	.	1E	N'est	2e\	que	.	.	.	.
.	.	.	.	[2e\	plai-	.	.	.	.
=25	=25	=25	=25	=25	=25	=25	=25	=25	=25
0D	.	1F	que	2e\]	.	0r	.	1r	.
.	.	.	.	4d\	.	.	.	.	.
.	.	.	.	4c\	.	.	.	.	.
.	.	1F	plai-	1d	.	.	.	1A	N'est
=26	=26	=26	=26	=26	=26	=26	=26	=26	=26
0r	.	0E	-sir	0e	-sir,	1r	.	1B	que
.	.	.	.	.	.	1B	N'est	1B	plai-
=27	=27	=27	=27	=27	=27	=27	=27	=27	=27
1r	.	1r	.	2r	.	1c	que	0A	-sir
.	.	.	.	2e\	n'est	.	.	.	.
1AA	N'est	1A	en-	4e\	que	1c	plai-	.	.
.	.	.	.	4d\	.	.	.	.	.
.	.	.	.	4e\	.	.	.	.	.
.	.	.	.	4f\	.	.	.	.	.
=28	=28	=28	=28	=28	=28	=28	=28	=28	=28
1E	que	1G	-vers	4g\	plai-	0B	-sir	1r	.
.	.	.	.	4e\	.	.	.	.	.
.	.	.	.	2.g\	-sir,	.	.	.	.
1E	plai-	1G	ceulx	.	.	.	.	1b	en-
.	.	.	.	4f\	.	.	.	.	.
.	.	.	.	4e\	.	.	.	.	.
.	.	.	.	4d\	.	.	.	.	.
=29	=29	=29	=29	=29	=29	=29	=29	=29	=29
0AA	-sir	1.A	que	2c\	.	1r	.	1.cc	-vers
.	.	.	.	2A/	en-	.	.	.	.
.	.	.	.	2A/	-vers	1e	en-	.	.
.	.	2E	je	2A/	ceulx	.	.	2cc\	ceulx
=30	=30	=30	=30	=30	=30	=30	=30	=30	=30
1r	.	2.G	por-	2B\	que	1d	-vers	1b	que
.	.	.	.	2G/	.	.	.	.	.
.	.	4A	.	.	.	.	.	.	.
1D	en-	1F	.	1A	je	1d	ceulx	1a	je
=31	=31	=31	=31	=31	=31	=31	=31	=31	=31
1.G	-vers	0E	-te,	2.B\	por-	1.e	que	2.g/	por-
.	.	.	.	4E/	.	.	.	4a/	.
.	.	.	.	4E/	.	.	.	1b	-te,
.	.	.	.	4F/	.	.	.	.	.
2G\	ceulx	.	.	4G/	.	2B\	je	.	.
.	.	.	.	4A/	.	.	.	.	.
=32	=32	=32	=32	=32	=32	=32	=32	=32	=32
2G\	que	0r	.	2.B\	.	2.d\	por-	2r	.
2G\	je	.	.	.	.	.	.	2b\	que
.	.	.	.	4E/	.	4e\	.	.	.
1A	por-	.	.	1e	-te,	1c	.	2cc\	je
.	.	.	.	.	.	.	.	[2a/	por-
=33	=33	=33	=33	=33	=33	=33	=33	=33	=33
0E	-te,	1r	.	2r	.	0B	-te,	2a/]	.
.	.	.	.	2e\	Me	.	.	4g#i/	.
.	.	.	.	.	.	.	.	4f#i/	.
.	.	1E	Me	2e\	tour-	.	.	1g#i	.
.	.	.	.	[2e\	-men-	.	.	.	.
=34	=34	=34	=34	=34	=34	=34	=34	=34	=34
2r	.	1F	tour-	2e\]	.	0r	.	1a	-te,
2A\	Me	.	.	4d\	.	.	.	.	.
.	.	.	.	4c\	.	.	.	.	.
2A\	tour-	1F	-men-	1d	.	.	.	1A	Me
[2A\	-men-	.	.	.	.	.	.	.	.
=35	=35	=35	=35	=35	=35	=35	=35	=35	=35
2A\]	.	0E	-tant	0e	-tant,	1r	.	1B	tour-
4G#i\	.	.	.	.	.	.	.	.	.
4F#i\	.	.	.	.	.	.	.	.	.
1G#i	.	.	.	.	.	1B	Me	1B	-men-
=36	=36	=36	=36	=36	=36	=36	=36	=36	=36
1.A	-tant,	1r	.	2r	.	1c	tour-	0A	-tant
.	.	.	.	2e\	me	.	.	.	.
.	.	1A	de	4e\	tour-	1c	-men-	.	.
.	.	.	.	4d\	.	.	.	.	.
2AA/	me	.	.	4e\	.	.	.	.	.
.	.	.	.	4f\	.	.	.	.	.
=37	=37	=37	=37	=37	=37	=37	=37	=37	=37
1E	tour-	1G	si	4g\	-men-	0B	-tant	1r	.
.	.	.	.	4e\	.	.	.	.	.
.	.	.	.	2.g\	.	.	.	.	.
1E	-men-	1G	pi-	.	.	.	.	1b	de
.	.	.	.	4f\	.	.	.	.	.
.	.	.	.	4e\	.	.	.	.	.
.	.	.	.	4d\	.	.	.	.	.
=38	=38	=38	=38	=38	=38	=38	=38	=38	=38
0AA	-tant	1.A	-teu-	2c\	-tant	1r	.	1.cc	si
.	.	.	.	2A/	de	.	.	.	.
.	.	.	.	2A/	si	1e	de	.	.
.	.	2E	-se	2A/	pi-	.	.	2cc\	pi-
=39	=39	=39	=39	=39	=39	=39	=39	=39	=39
1r	.	2.G	sor-	2B\	-teu-	1d	si	1b	-teu-
.	.	.	.	2G/	.	.	.	.	.
.	.	4A	.	.	.	.	.	.	.
1D	de	1F	.	1A	-se	1d	pi-	1a	-se
=40	=40	=40	=40	=40	=40	=40	=40	=40	=40
1.G	si	0E	-te,	2.B\	sor-	1.e	-teu-	2.g/	sor-
.	.	.	.	4E/	.	.	.	4a/	.
.	.	.	.	4E/	.	.	.	1b	-te,
.	.	.	.	4F/	.	.	.	.	.
2G\	pi-	.	.	4G/	.	2B\	-se	.	.
.	.	.	.	4A/	.	.	.	.	.
=41	=41	=41	=41	=41	=41	=41	=41	=41	=41
2G\	-teu-	0r	.	2.B\	.	2.d\	sor-	2r	.
2G\	-se	.	.	.	.	.	.	2b\	si
.	.	.	.	4E/	.	4e\	.	.	.
1A	sor-	.	.	1e	.	1c	.	2cc\	pi-
.	.	.	.	.	.	.	.	[2a/	-teu-
=42	=42	=42	=42	=42	=42	=42	=42	=42	=42
0E	-te,	0r	.	0e	-te,	0B	-te,	2a/]	.
.	.	.	.	.	.	.	.	4g#i/	-se
.	.	.	.	.	.	.	.	4f#i/	.
.	.	.	.	.	.	.	.	1g#i	sor-
=43	=43	=43	=43	=43	=43	=43	=43	=43	=43
2r	.	0A	Que	2r	.	0r	.	2a/	-te,
2AA/	Que	.	.	2c\	Que	.	.	2e/	Que
1D	mes	.	.	1d	mes	.	.	1f	mes
=44	=44	=44	=44	=44	=44	=44	=44	=44	=44
1D	es-	1A	mes	1d	es-	0r	.	1f	es-
2.AA/	-pris	1A	es-	[1c	-pris	.	.	2.e/	-pris
4BB/	.	.	.	.	.	.	.	4d/	.
=45	=45	=45	=45	=45	=45	=45	=45	=45	=45
4C/	.	0G	-pris	2c\]	.	0e	Que	4e/	.
4D\	.	.	.	.	.	.	.	4f/	.
2.E\	.	.	.	4B\	.	.	.	2.g/	.
.	.	.	.	4A/	.	.	.	.	.
.	.	.	.	1B	.	.	.	.	.
4F\	.	.	.	.	.	.	.	4f/	.
2G\	.	.	.	.	.	.	.	4e/	.
.	.	.	.	.	.	.	.	4d/	.
=46	=46	=46	=46	=46	=46	=46	=46	=46	=46
2A\	.	1r	.	1A	.	1e	mes	0c	.
2AA/	ne	.	.	.	.	.	.	.	.
2.C/	sca-	1A	ne	2r	.	1e	es-	.	.
.	.	.	.	2E/	ne	.	.	.	.
4BB/	.	.	.	.	.	.	.	.	.
=47	=47	=47	=47	=47	=47	=47	=47	=47	=47
1GG	-vent,	1.B-	sca-	2G/	sca-	0d	-pris	2r	.
.	.	.	.	2D/	-vent	.	.	2d/	ne
2r	.	.	.	2.d\	plus	.	.	2.f/	sca-
2D\	ne	2A	-vent	.	.	.	.	.	.
.	.	.	.	4c\	.	.	.	4f/	-vent
=48	=48	=48	=48	=48	=48	=48	=48	=48	=48
2E\	sca-	2G	plus	4B\	.	1r	.	2e/	plus
.	.	.	.	4A/	.	.	.	.	.
2F\	-vent	2F	.	1A	qu'ilz	.	.	2.d/	qu'ilz
2G\	plus	1E	qu'ilz	.	.	1e	ne	.	.
.	.	.	.	.	.	.	.	4c#i/	.
2C/	qu'ilz	.	.	2G/	.	.	.	4c#i/	.
.	.	.	.	.	.	.	.	4B/	.
=49	=49	=49	=49	=49	=49	=49	=49	=49	=49
3.F\V	font,	0D	font,	2A/	font,	1.f	sca-	1d	font,
6G\	.	.	.	2D/	ne	.	.	.	.
3A\Z	ne	.	.	.	.	.	.	.	.
3D\V	sca-	.	.	2.d\	sca-	.	.	1r	.
3E\	.	.	.	.	.	.	.	.	.
.	.	.	.	.	.	2e\	-vent	.	.
3F\Z	-vent	.	.	.	.	.	.	.	.
.	.	.	.	4c\	-vent	.	.	.	.
=50	=50	=50	=50	=50	=50	=50	=50	=50	=50
2G\	plus	0r	.	4B\	plus	2d\	plus	0r	.
.	.	.	.	4A/	.	.	.	.	.
2A\	qu'ilz	.	.	1A	.	2c\	.	.	.
1E	font,	.	.	.	.	1B	qu'ilz	.	.
.	.	.	.	2G#i/	qu'ilz	.	.	.	.
=51	=51	=51	=51	=51	=51	=51	=51	=51	=51
2r	.	0A	que	1A	font,	0A	font,	2r	.
2AA/	que	.	.	.	.	.	.	2e/	que
1D	mes	.	.	2r	.	.	.	1f	mes
.	.	.	.	2A/	que	.	.	.	.
=52	=52	=52	=52	=52	=52	=52	=52	=52	=52
1D	es-	1A	mes	2d\	mes	0r	.	1f	es-
.	.	.	.	2d\	es-	.	.	.	.
2.AA/	-pris	1A	es-	[1c	-pris	.	.	2.e/	-pris
4BB/	.	.	.	.	.	.	.	4d/	.
=53	=53	=53	=53	=53	=53	=53	=53	=53	=53
4C/	.	0G	pris	2c\]	.	0e	que	4e/	.
4D\	.	.	.	.	.	.	.	4f/	.
2.E\	.	.	.	4B\	.	.	.	2.g/	.
.	.	.	.	4A/	.	.	.	.	.
.	.	.	.	1B	.	.	.	.	.
4F\	.	.	.	.	.	.	.	4f/	.
2G\	.	.	.	.	.	.	.	4e/	.
.	.	.	.	.	.	.	.	4d/	.
=54	=54	=54	=54	=54	=54	=54	=54	=54	=54
2A\	.	1r	.	1A	.	1e	mes	0c	.
2AA/	ne	.	.	.	.	.	.	.	.
2.C/	sca-	1A	ne	2r	.	1e	es-	.	.
.	.	.	.	2E/	ne	.	.	.	.
4BB/	.	.	.	.	.	.	.	.	.
=55	=55	=55	=55	=55	=55	=55	=55	=55	=55
1GG	-vent,	1.B-	sca-	2G/	sca-	0d	pris	2r	.
.	.	.	.	2D/	-vent	.	.	2d/	ne
2r	.	.	.	2.d\	plus	.	.	2.f/	sca-
2D\	ne	2A	-vent	.	.	.	.	.	.
.	.	.	.	4c\	.	.	.	4f/	-vent
=56	=56	=56	=56	=56	=56	=56	=56	=56	=56
2E\	sca-	2G	plus	4B\	.	1r	.	2e/	plus
.	.	.	.	4A/	.	.	.	.	.
2F\	-vent	2F	.	1A	.	.	.	2.d/	qu'ilz
2G\	plus	1E	qu'ilz	.	.	1e	ne	.	.
.	.	.	.	.	.	.	.	4c#i/	.
2C/	qu'ilz	.	.	2G/	qu'ilz	.	.	4c#i/	.
.	.	.	.	.	.	.	.	4B/	.
=57	=57	=57	=57	=57	=57	=57	=57	=57	=57
2.F\	font,	[0Dl	font.	3A/V	font,	1.f	sca-	[0dl	font.
.	.	.	.	3D/	ne	.	.	.	.
.	.	.	.	3E/Z	.	.	.	.	.
4E\	.	.	.	.	.	.	.	.	.
2D\	.	.	.	3.F/V	sca-	.	.	.	.
2C/	plus	.	.	6G/	.	2e\	-vent	.	.
.	.	.	.	3A/Z	-vent	.	.	.	.
=58	=58	=58	=58	=58	=58	=58	=58	=58	=58
2BB-/	.	0D_	.	3.D/V	plus	2d\	plus	0d_	.
2AA/	.	.	.	6E/	.	2c\	.	.	.
.	.	.	.	3F/Z	.	.	.	.	.
1GG	qu'ilz	.	.	3G/V	qu'ilz	1B-i	qu'ilz	.	.
.	.	.	.	3D/	.	.	.	.	.
.	.	.	.	3G/Z	.	.	.	.	.
=59	=59	=59	=59	=59	=59	=59	=59	=59	=59
0Dl	font.	0D]	.	0Fl	font.	0Al	font.	0d]	.
==	==	==	==	==	==	==	==	==	==
*-	*-	*-	*-	*-	*-	*-	*-	*-	*-
!!!RDF**kern: l=long note in original notation
!!!RDF**kern: i=editorial accidental
!!!RDF**kern: V=start of tuplet marker
!!!RDF**kern: Z=end of tuplet marker
!!!ENC: Will Watson 30/10/2011
!!!END: 2011/10/30/
!!!EED: Jesse Rodin
!!!EEV: 2012/04/22/
!!attribution-level@Jos: 2 (provisionally attributable [parentheses checkmark])
!!!ONB: Translated from MusicXML and edited on 2011/12/01/ by Craig Sapp
!!muse2ps: C^@{COM}\n@{SCT}^i2I150v75,75,75,75,110c105z18l2780t100
